img/b-icon.svg

<svg width="10" height="10" viewBox="0 0 10 10" fill="none" xmlns="http://www.w3.org/2000/svg">
<path d="M3 0C2.20435 0 1.44129 0.316071 0.87868 0.87868C0.316071 1.44129 0 2.20435 0 3V6.5C0 7.29565 0.316071 8.05871 0.87868 8.62132C1.44129 9.18393 2.20435 9.5 3 9.5H6.5C7.29565 9.5 8.05871 9.18393 8.62132 8.62132C9.18393 8.05871 9.5 7.29565 9.5 6.5V4C9.5 3.86739 9.44732 3.74021 9.35355 3.64645C9.25979 3.55268 9.13261 3.5 9 3.5H8.5C8.36739 3.5 8.24021 3.44732 8.14645 3.35355C8.05268 3.25979 8 3.13261 8 3C8 2.20435 7.68393 1.44129 7.12132 0.87868C6.55871 0.316071 5.79565 0 5 0H3ZM3 2.5H5C5.275 2.5 5.5 2.725 5.5 3C5.5 3.275 5.275 3.5 5 3.5H3C2.725 3.5 2.5 3.275 2.5 3C2.5 2.725 2.725 2.5 3 2.5ZM3 6H6.5C6.775 6 7 6.225 7 6.5C7 6.775 6.775 7 6.5 7H3C2.725 7 2.5 6.775 2.5 6.5C2.5 6.225 2.725 6 3 6Z" fill="#9F9F9F"/>
</svg>

<svg width="10" height="10" fill="none" xmlns="http://www.w3.org/2000/svg"><path d="M3 0a3 3 0 0 0-3 3v3.5a3 3 0 0 0 3 3h3.5a3 3 0 0 0 3-3V4a.5.5 0 0 0-.5-.5h-.5A.5.5 0 0 1 8 3a3 3 0 0 0-3-3H3Zm0 2.5h2c.275 0 .5.225.5.5s-.225.5-.5.5H3a.501.501 0 0 1-.5-.5c0-.275.225-.5.5-.5ZM3 6h3.5c.275 0 .5.225.5.5s-.225.5-.5.5H3a.501.501 0 0 1-.5-.5c0-.275.225-.5.5-.5Z" fill="#9F9F9F"/></svg>
